X: 866
T: Gönlümle Oturdum da Hüzünlendim
C: Şekip Memduh Bey
O: Turkey
F: http://compmusic.upf.edu/node/140
N: nihavent--sarki--sofyan--gonlumle_oturdum--sekip_memduh_bey
N: makam= nihavent
N: form= sarki
N: usul= sofyan = 4/4
M: 4/4
L: 1/16
K: C _B _e  
Q: 1/4=60
%%MIDI tuningsystem comma53
BAG2 BAG2 DE^FG BAG2  | BAG2 BAG2 DE^FG A4  | 
w:  ARANAĞME  |   | 
ABc4BA Bcd4cB  | ABcd BcAB G2D2 G4  | 
w:   |   | 
BAG2 BAG2 DE^FG BAG2  | BAG2 BAG2 DE^FG A4  | 
w:  ARANAĞME  |   | 
ABc4BA Bcd4cB  | ABcd BcAB G2D2 G4  | 
w:   |   | 
G3^F G3F G2A2 B3A  | B2BA B2c2 d3c dcBA  | \
w:  Gön *  lüm *  le  o tur  |  dum  *  *  da  hü zün *  len  | 
G2A2 B2A2 G2^F2 E2D2  | 
w:  dim  o  yer *  de    | 
G3^F G3F G2A2 B3A  | B2BA B2c2 d3c dcBA  | \
w:  Gön *  lüm *  le  o tur  |  dum  *  *  da  hü zün *  len  | 
G2A2 BAG^F G6z2  | 
w:  dim  o  yer *  *  *  de    | 
d2g6 g2gf f3e  | e3d d2dc c4 dc(3BAB  | \
w:  Sen  ner de sin  *  ey   |  sev *  gi li  *  yaz  gün  | 
c2c2 dcBA B2c2 d4  | 
w:  le ri  ner *  *  *  de    | 
G2d6 d2dB A3B  | c4 BAG2 DE^FG A3G  | \
w:  Sen  ner de sin  *  ey   |  sev gi *  li  yaz  *  *  *  gün  | 
BAG2 ^FGAG G8  | 
w:  le *  ri  ner *  *  *  de    | 
f3g g4 f2g2 a2ag  | g4 c'2ba a3g g2f2  | \
w:  Dağ *  lar  a ğa rır  |  ken  ko nu *  şur *  duk   | 
g2a2 c'bag f2ed d4  | 
w:  te pe ler *  *  *  de    | 
g3a a4 a2b2 c'2d'2  | c'bag f2g2 f2ed e3d  | \
w:  Dağ *  lar  a ğa rır  |  ken  *  *  *  ko nu şur *  *  duk   | 
f2g2 feed d6z2  | 
w:  te pe ler *  *  *  de    | 
d2g6 g2gf f3e  | e3d d2dc c4 dc(3BAB  | \
w:  Sen  ner de sin  *  ey   |  sev *  gi li  *  yaz  gün  | 
c2c2 dcBA B2c2 d4  | 
w:  le ri  ner *  *  *  de    | 
G2d6 d2dB A3B  | c4 BAG2 DE^FG A3G  | \
w:  Sen  ner de sin  *  ey   |  sev gi *  li  yaz  *  *  *  gün  | 
BAG2 ^FGAG G8  | 
w:  le *  ri  ner *  *  *  de    | 
|


